X:18509
T:Wandering Minstrel, The
R:jig
Z:id:hn-jig-83
M:6/8
K:D
ADD BAF|Ade fdB|ADD BAG|F/G/AF GFE|ADD BAF|Ade fdB|AdB AFE|1 FDD D2B:|2 FDD D2g||
|:fdf ede|fdB AFA|~B3 AFd|AGF E2g|~f3 ede|fdB AFA|~B3 AFE|1 FDD D2g:|2 FDD D2e||
|:fef afd|gbe gbe|~f3 afd|ceA ceA|fef afd|gbe gbe|~f3 ede|1 fdc d2e:|2 fdc d2B||


